images/barbershop.svg

<svg width="365" height="81" viewBox="0 0 365 81" fill="none" xmlns="http://www.w3.org/2000/svg">
<path d="M120.366 11.5794C127.536 9.11765 128.129 0 121.019 0C119.01 0 116.721 1.38791 115.114 4.22451L105.443 21.001C105.049 21.7185 104.588 22.3969 104.068 23.0271C101.597 19.5928 102.32 14.4667 105.785 12.2176L104.439 10.4042C96.9476 15.2163 99.1469 29.1258 111.649 29.1258C122.294 29.1157 127.235 16.2092 120.366 11.5794ZM111.539 26.3399C109.743 26.3855 107.967 25.9559 106.387 25.0938C107.056 24.2936 107.654 23.436 108.175 22.5307L114.2 12.0252L115.204 12.1265C123.519 13.8993 120.195 26.3399 111.539 26.3399ZM115.385 9.91797L118.267 4.92353C120.878 0.384967 124.212 3.04935 122.425 6.44314C121.049 9.04673 119.02 9.84706 115.385 9.91797Z" fill="white"/>
<path d="M260.305 19.2484L260.064 19.5219C258.341 21.7333 256.097 23.4746 253.536 24.5873C254.119 23.6552 254.54 22.6422 255.012 21.8824L258.959 15.0542C262.293 9.34052 256.9 7.42582 253.255 10.7183L253.978 9.47222H250.403L244.819 19.2484L244.578 19.5219C243.904 20.3094 243.078 20.9514 242.152 21.4092C241.225 21.867 240.216 22.1313 239.186 22.1863L242.55 16.3307C244.719 12.552 242.721 8.98595 239.356 8.98595C236.605 8.98595 234.476 10.0902 232.417 13.6967L230.66 16.7359L229.194 19.2484L229.003 19.4712C226.422 22.5105 223.922 24.881 222.335 24.881C221.542 24.881 221.1 24.3239 221.923 22.8549L227.075 13.7373C228.621 11.002 227.145 9.02647 225.147 9.02647C223.6 9.02647 221.953 9.88758 220.126 11.7618L225.83 1.74248H222.255L212.343 19.2484L212.142 19.4814C210.895 20.9709 209.461 22.289 207.874 23.402C209.009 19.9676 208.768 14.6997 210.967 10.0902L208.286 8.63137C206.81 10.6575 203.576 15.3886 200.352 19.1977L200.111 19.4712C197.531 22.5105 195.03 24.881 193.443 24.881C192.65 24.881 192.208 24.3239 193.032 22.8549L196.607 16.5435C197.842 14.3552 197.259 13.0788 196.095 11.6605L194.086 9.23922C193.956 9.10316 193.855 8.94234 193.787 8.76618C193.72 8.59002 193.688 8.40208 193.694 8.21336C193.7 8.02465 193.742 7.83896 193.82 7.6672C193.898 7.49543 194.009 7.34104 194.146 7.21307L194.257 7.1219L192.399 5.09575C190.391 6.92941 190.2 8.97582 191.475 10.6373L191.776 11.0526C190.2 13.3016 188.071 16.351 185.751 19.1572L185.51 19.4307C182.929 22.4699 179.635 24.8405 177.125 24.8405C174.926 24.8405 173.62 23.4526 175.267 20.5451L175.608 19.917C177.908 20.9301 182.236 20.4337 184.918 15.7634L185.43 14.8618C187.358 11.5389 185.5 9.0366 182.578 9.0366C181.198 9.04644 179.848 9.43678 178.672 10.1653C177.497 10.8939 176.542 11.9329 175.91 13.1699L172.425 19.2484L172.214 19.4915C171.542 20.2817 170.717 20.9255 169.79 21.3836C168.862 21.8417 167.853 22.1044 166.821 22.1559L170.186 16.3003C170.977 15.0575 171.44 13.6312 171.531 12.1569C171.556 11.7584 171.502 11.359 171.374 10.9814C171.245 10.6038 171.044 10.2555 170.782 9.9563C170.52 9.65713 170.202 9.41298 169.846 9.23779C169.491 9.0626 169.104 8.95981 168.709 8.93529H168.288C167.446 8.95923 166.63 9.23809 165.948 9.73562L170.487 1.80327H166.842L156.839 19.2484L156.649 19.4611C154.068 22.5003 151.567 24.8709 149.981 24.8709C149.187 24.8709 148.745 24.3137 149.569 22.8448L153.144 16.5333C154.379 14.3451 153.797 13.0686 152.632 11.6503L150.623 9.22908C150.493 9.09305 150.391 8.93189 150.324 8.75524C150.257 8.57859 150.225 8.39007 150.232 8.20095C150.238 8.01182 150.283 7.82597 150.362 7.6545C150.441 7.48303 150.554 7.32945 150.694 7.20294L150.834 7.0915L148.976 5.06536C146.968 6.89902 146.777 8.94543 148.053 10.6069L148.364 11.0222C146.787 13.2712 144.648 16.3206 142.339 19.1268L142.097 19.4003C139.517 22.4395 137.016 24.8101 135.429 24.8101C134.636 24.8101 134.194 24.2529 135.018 22.784L140.792 12.5925H138.784C138.717 11.635 138.287 10.7402 137.584 10.0933C136.882 9.4464 135.959 9.09707 135.008 9.11765C133.08 9.11765 130.408 10.6474 128.892 13.2814L123.871 22.0141C122.354 24.6886 123.429 27.1402 126.311 27.1402C127.757 27.1402 129.545 26.2082 131.262 24.7797C131.433 26.1676 132.537 27.1402 134.355 27.1402C137.307 27.1402 140.712 23.949 143.664 20.4843C145.381 18.4582 146.677 16.6752 149.569 12.7546L150.051 13.3422C150.29 13.6163 150.438 13.9585 150.476 14.3214C150.514 14.6843 150.439 15.0501 150.262 15.3683L146.486 21.9837C144.98 24.6582 146.044 27.1098 148.926 27.1098C150.995 27.1098 153.285 25.5395 155.494 23.4121C155.494 25.8739 157.311 27.2618 159.621 27.2618C160.81 27.1984 161.97 26.8648 163.013 26.2859C164.057 25.707 164.957 24.8978 165.646 23.9186C165.911 23.9389 166.176 23.9389 166.44 23.9186C168.11 23.8385 169.736 23.3519 171.18 22.5003C170.989 25.1039 172.867 27.0794 176.02 27.0794C180.037 27.0794 184.054 23.8882 187.067 20.4235C188.784 18.3974 190.079 16.6144 192.971 12.6938L193.453 13.2814C193.692 13.5555 193.841 13.8977 193.878 14.2606C193.916 14.6235 193.841 14.9893 193.664 15.3075L189.888 21.9229C188.372 24.5974 189.447 27.049 192.329 27.049C195.211 27.049 198.685 23.8578 201.638 20.3931C203.646 18.0327 205.454 15.5101 206.719 13.8082C205.313 17.5565 206.066 24.2732 202.702 24.2732C202.327 24.2357 201.969 24.0923 201.671 23.8593C201.373 23.6264 201.145 23.3134 201.015 22.9562L198.836 24.1314C199.065 24.9922 199.578 25.7488 200.29 26.2771C201.001 26.8054 201.87 27.074 202.753 27.0389C203.094 27.0389 203.425 27.0389 203.757 26.968H203.857C205.851 26.6258 207.735 25.8059 209.35 24.5771L208.125 26.7248H211.73L217.153 17.1918C222.656 10.2219 225.086 11.1134 223.54 13.798L218.9 21.9026C217.384 24.567 218.459 27.0288 221.341 27.0288C223.419 27.0288 225.709 25.4484 227.918 23.3108C227.918 27.9101 234.235 28.8016 238.111 23.868H238.905C240.231 23.8174 241.533 23.4933 242.731 22.9157L236.223 34.3026H239.828L250.513 15.5507C254.53 10.0699 257.011 12.0859 256.077 13.717L250.684 23.1487C250.587 23.4147 250.411 23.6442 250.18 23.8063C249.949 23.9684 249.675 24.0553 249.394 24.0553C249.112 24.0553 248.838 23.9684 248.607 23.8063C248.377 23.6442 248.201 23.4147 248.103 23.1487L246.095 24.1618C246.324 25.0226 246.837 25.7792 247.548 26.3075C248.26 26.8358 249.128 27.1044 250.011 27.0693H250.222C255.414 26.968 258.808 23.8477 261.731 20.4134C261.587 20.129 261.386 19.8783 261.141 19.6775C260.895 19.4768 260.61 19.3306 260.305 19.2484ZM178.962 14.183C180.971 10.617 184.666 11.2046 182.538 14.9428L182.025 15.8444C180.308 18.7925 178.008 18.7216 176.663 18.2353L178.962 14.183ZM133.16 19.8663C130.991 23.3007 128.862 24.9317 127.386 24.9317C126.592 24.9317 126.15 24.3745 126.974 22.9056L131.995 14.1324C133.923 10.769 137.729 11.6402 136.012 14.8922L133.16 19.8663ZM160.063 24.7899C159.718 24.8095 159.379 24.6924 159.118 24.4634C158.857 24.2344 158.695 23.9117 158.667 23.5641C158.662 23.5101 158.662 23.4559 158.667 23.402C158.721 22.7355 158.935 22.0923 159.29 21.5278L160.495 19.2484C160.588 19.9984 160.839 20.7197 161.23 21.3643C161.621 22.0089 162.145 22.562 162.764 22.9866C162.496 23.4866 162.106 23.9103 161.633 24.2184C161.159 24.5265 160.615 24.7091 160.053 24.7493L160.063 24.7899ZM163.789 21.2745C163.294 20.8944 162.898 20.3993 162.634 19.8312C162.37 19.2632 162.246 18.6392 162.272 18.0124C162.272 15.4493 164.743 11.2552 166.771 11.2552C166.951 11.2552 167.13 11.2912 167.296 11.3611C167.463 11.4309 167.614 11.5333 167.741 11.6623C167.867 11.7914 167.968 11.9444 168.036 12.1128C168.104 12.2811 168.138 12.4614 168.137 12.6431C168.142 12.7004 168.142 12.7581 168.137 12.8154C168.103 13.5798 167.867 14.3211 167.454 14.9631L163.789 21.2745ZM237.177 19.4712H236.997C236.438 19.4766 235.904 19.7041 235.511 20.1044C235.118 20.5047 234.898 21.0454 234.898 21.6088C234.904 22.0372 235.022 22.4563 235.239 22.8245V22.8954C233.552 25.8029 229.465 25.2559 231.594 21.5075L235.992 13.798C238.503 9.50261 241.937 11.1944 239.768 14.9428L237.177 19.4712ZM0 74.2177L5.73411 68.4229L11.4783 74.2177L5.73411 80.0327L0 74.2177ZM353.486 74.2177L359.23 68.433L364.965 74.2278L359.251 80.0327L353.486 74.2177Z" fill="white"/>
</svg>

<svg width="365" height="81" fill="none" xmlns="http://www.w3.org/2000/svg"><path d="M120.366 11.58c7.17-2.462 7.763-11.58.653-11.58-2.009 0-4.298 1.388-5.905 4.225L105.443 21a13.067 13.067 0 01-1.375 2.026c-2.471-3.434-1.748-8.56 1.717-10.81l-1.346-1.813c-7.491 4.812-5.292 18.722 7.21 18.722 10.645-.01 15.586-12.917 8.717-17.547zm-8.827 14.76a10.212 10.212 0 01-5.152-1.246 17.97 17.97 0 001.788-2.563l6.025-10.506 1.004.101c8.315 1.773 4.991 14.214-3.665 14.214zm3.846-16.422l2.882-4.994c2.611-4.539 5.945-1.875 4.158 1.52-1.376 2.603-3.405 3.403-7.04 3.474z" fill="#fff"/><path d="M260.305 19.248l-.241.274a16.73 16.73 0 01-6.528 5.065c.583-.932 1.004-1.945 1.476-2.705l3.947-6.828c3.334-5.713-2.059-7.628-5.704-4.336l.723-1.246h-3.575l-5.584 9.776-.241.274a7.667 7.667 0 01-2.426 1.887 7.615 7.615 0 01-2.966.777l3.364-5.855c2.169-3.779.171-7.345-3.194-7.345-2.751 0-4.88 1.104-6.939 4.71l-1.757 3.04-1.466 2.512-.191.223c-2.581 3.04-5.081 5.41-6.668 5.41-.793 0-1.235-.557-.412-2.026l5.152-9.118c1.546-2.735.07-4.71-1.928-4.71-1.547 0-3.194.86-5.021 2.735l5.704-10.02h-3.575l-9.912 17.506-.201.233a22.165 22.165 0 01-4.268 3.921c1.135-3.434.894-8.702 3.093-13.312l-2.681-1.459c-1.476 2.027-4.71 6.758-7.934 10.567l-.241.273c-2.58 3.04-5.081 5.41-6.668 5.41-.793 0-1.235-.557-.411-2.026l3.575-6.311c1.235-2.189.652-3.465-.512-4.883l-2.009-2.422a1.428 1.428 0 01.06-2.026l.111-.091-1.858-2.026c-2.008 1.833-2.199 3.88-.924 5.541l.301.416c-1.576 2.249-3.705 5.298-6.025 8.104l-.241.274c-2.581 3.039-5.875 5.41-8.385 5.41-2.199 0-3.505-1.388-1.858-4.296l.341-.628c2.3 1.013 6.628.517 9.31-4.154l.512-.901c1.928-3.323.07-5.825-2.852-5.825-1.38.01-2.73.4-3.906 1.128a7.604 7.604 0 00-2.762 3.005l-3.485 6.078-.211.243a7.607 7.607 0 01-2.424 1.893 7.554 7.554 0 01-2.969.772l3.365-5.856a8.718 8.718 0 001.345-4.143 3.065 3.065 0 00-.749-2.2 3.012 3.012 0 00-2.073-1.022h-.421a4.172 4.172 0 00-2.34.8l4.539-7.932h-3.645l-10.003 17.445-.19.213c-2.581 3.04-5.082 5.41-6.668 5.41-.794 0-1.236-.557-.412-2.026l3.575-6.312c1.235-2.188.653-3.464-.512-4.883l-2.009-2.42a1.41 1.41 0 01-.391-1.029 1.414 1.414 0 01.462-.998l.14-.112-1.858-2.026c-2.008 1.834-2.199 3.88-.923 5.542l.311.415c-1.577 2.25-3.716 5.299-6.025 8.105l-.242.273c-2.58 3.04-5.081 5.41-6.668 5.41-.793 0-1.235-.557-.411-2.026l5.774-10.191h-2.008a3.752 3.752 0 00-1.2-2.5 3.684 3.684 0 00-2.576-.975c-1.928 0-4.6 1.53-6.116 4.163l-5.021 8.733c-1.517 2.675-.442 5.126 2.44 5.126 1.446 0 3.234-.932 4.951-2.36.171 1.388 1.275 2.36 3.093 2.36 2.952 0 6.357-3.191 9.309-6.656 1.717-2.026 3.013-3.809 5.905-7.73l.482.588a1.77 1.77 0 01.211 2.026l-3.776 6.616c-1.506 2.674-.442 5.126 2.44 5.126 2.069 0 4.359-1.57 6.568-3.698 0 2.462 1.817 3.85 4.127 3.85a7.851 7.851 0 003.392-.976 7.911 7.911 0 002.633-2.367c.265.02.53.02.794 0a10.3 10.3 0 004.74-1.419c-.191 2.604 1.687 4.58 4.84 4.58 4.017 0 8.034-3.192 11.047-6.656 1.717-2.027 3.012-3.81 5.904-7.73l.482.587a1.774 1.774 0 01.211 2.026l-3.776 6.616c-1.516 2.674-.441 5.126 2.441 5.126 2.882 0 6.356-3.191 9.309-6.656 2.008-2.36 3.816-4.883 5.081-6.585-1.406 3.748-.653 10.465-4.017 10.465a1.998 1.998 0 01-1.031-.414 2.027 2.027 0 01-.656-.903l-2.179 1.175c.229.861.742 1.618 1.454 2.146.711.528 1.58.797 2.463.762.341 0 .672 0 1.004-.071h.1a12.588 12.588 0 005.493-2.39l-1.225 2.147h3.605l5.423-9.533c5.503-6.97 7.933-6.079 6.387-3.394l-4.64 8.105c-1.516 2.664-.441 5.126 2.441 5.126 2.078 0 4.368-1.58 6.577-3.718 0 4.6 6.317 5.49 10.193.557h.794a9.657 9.657 0 003.826-.952l-6.508 11.387h3.605l10.685-18.752c4.017-5.481 6.498-3.465 5.564-1.834l-5.393 9.432a1.381 1.381 0 01-1.29.906c-.282 0-.556-.087-.787-.249a1.394 1.394 0 01-.504-.657l-2.008 1.013c.229.86.742 1.617 1.453 2.146.712.528 1.58.796 2.463.761h.211c5.192-.101 8.586-3.221 11.509-6.656a2.249 2.249 0 00-1.426-1.165zm-81.343-5.065c2.009-3.566 5.704-2.978 3.576.76l-.513.901c-1.717 2.949-4.017 2.878-5.362 2.391l2.299-4.052zm-45.802 5.683c-2.169 3.435-4.298 5.066-5.774 5.066-.794 0-1.236-.557-.412-2.026l5.021-8.774c1.928-3.363 5.734-2.492 4.017.76l-2.852 4.974zm26.903 4.924a1.319 1.319 0 01-.945-.327 1.34 1.34 0 01-.451-.899.878.878 0 010-.162 4.15 4.15 0 01.623-1.874l1.205-2.28a5.35 5.35 0 00.735 2.116 5.304 5.304 0 001.534 1.623c-.268.5-.658.923-1.131 1.231a3.337 3.337 0 01-1.58.531l.01.04zm3.726-3.515a3.88 3.88 0 01-1.155-1.444 3.93 3.93 0 01-.362-1.819c0-2.563 2.471-6.757 4.499-6.757a1.355 1.355 0 01.97.407 1.393 1.393 0 01.396.981.991.991 0 010 .172 4.326 4.326 0 01-.683 2.148l-3.665 6.312zm73.388-1.804h-.18a2.11 2.11 0 00-1.486.633c-.393.4-.613.941-.613 1.505.006.428.124.847.341 1.215v.071c-1.687 2.908-5.774 2.36-3.645-1.387l4.398-7.71c2.511-4.295 5.945-2.604 3.776 1.145l-2.591 4.528zM0 74.218l5.734-5.795 5.744 5.795-5.744 5.815L0 74.218zm353.486 0l5.744-5.785 5.735 5.795-5.714 5.805-5.765-5.815z" fill="#fff"/></svg>
